X:1
T:Khvalitye imya Gospodie
T:П. И. Чаиковский, 1883
T:Великое славословие
T:Всенощное бдение,  Opus 50, No. 16
T:Public Domain
T:Public Domain
T:Public Domain
T:Public Domain
T:Public Domain
T:Public Domain
T:Public Domain
T:Public Domain
T:Public Domain
C:Sergei Rakhmanninov
Z:Public Domain
%%score [ 1 2 3 4 ]
L:1/8
Q:1/4=116
M:4/4
K:C
V:1 treble nm="Дискант" snm="Д"
V:2 treble nm="Альт" snm="A."
V:3 treble-8 nm="Тенор" snm="Т"
V:4 bass nm="Бас" snm="Б"
V:1
"^Не скоро\nNot fast"!f! cd e2 ed c2 | d4 (d2 e2) | f2 e2 ed c2 | d4 e2 e2 | e3 e!>(! e2 dc!>)! | %5
 d4!<(! d2 e2!<)! |!>(! f3 e eedc!>)! |!mp! d4 (d2 e2) | f2 ee eedc | d3 d dccc | %10
 d4!<(! d2 e2!<)! |!>(! f3 e e2 ee!>)! | eedc!<(! (d2 e2)!<)! |!>(! f3 e eedc!>)! | d2 e2 !>!f3 e | %15
!>(! f4 e2 ee!>)! | dc d2 e2 ee | e2 e2 z edc |!<(! d4 defe!<)! |!>(! f2 ee eeee!>)! | e3 e e2 ee | %21
 d3 c!<(! d2 e2!<)! |[M:3/2] f3 e!>(! e2 dc (d2 e2)!>)! |[M:4/4] !>!f2 ee e2 ee | %24
 !>!f2 e2!<(! (d2 e2)!<)! |!>(! f4- feee!>)! | eeee eedc |!<(! d2 e2 f2 g2!<)! |!ff! a4 g2 g2 | %29
 g2 gg f2 e2 |!>(! f3 f!<(! (f2 g2)!>)!!<)! |!ff! a4- aggg |!>(! g2 fe!<(! (f2 g2)!>)!!<)! | %33
!ff! a3 g ggfe | f2 ff g2 d2 | e2 ee f2 cc | d4 d4 | ^c4 z2 !fermata!z!p! c | ^c2 c2 z ccc | %39
 ^c2 c2 z ccc |!<(! ^c4 d2!>(! dd!<)!!>)! |!<(! ^c3 c d!>(!ddd!<)!!>)! | %42
 ^c2 c2 !fermata!z2"^Вдвое тише\nTwice calmer"!p![Q:1/4=60] c2 | d3 G G2 GG | _B2 B4 Bd | %45
!<(! c2 G_B A2 AA!<)! | (!>!A2 G2)!pp! F2 FF |!<(! G2 GG G2 ^FF!<)! |!<(! _B2 BB B2 AA!<)! | %49
 d4!f! eede | f2 ff gfeg | d2 d2!>(! d2 dd!>)! | ^c4!p! d3 G | G2 GG _B2 Bd |!<(! c3 G A4!<)! | %55
"^ускоряя\naccelerating"[Q:1/4=70] B2 B2[Q:1/4=80] c2 cc | %56
[Q:1/4=90] d2 d[Q:1/4=105]d e[Q:1/4=120]"^Оживленно\nLively"!ff!cde |: f2 ed!>(! c3 _B!>)! | %58
 A2!p! AA c2 _B2 | z2 AA G3 G | G2 G2 A!ff!cde :| f2 ed!>(! c3 _B!>)! |!p!!<(! A2 AA c2 _B2!<)! | %63
 z2!<(! _BB d2 c2!<)! |[M:3/2] z2!f! cc f3 f f2 f2 |[M:4/4] e6- e !fermata!z | %66
"^Первое движение\nTempo as at first"[Q:1/4=116]!f! f3 e e3 d | e2 ee eeee | %68
!>(! f3 e!<(! d2 de!>)!!<)! |!>(! f3 e e3 d!>)! | ee e2 z eee | eeee!<(! eede!<)! | %72
!>(! f3 e!<(! (d2 e2)!>)!!<)! |!>(! f3 e e2 z e!>)! | e2 dc!<(! d2 de!<)! |!>(! f2 e2 z eee!>)! | %76
[M:3/2] e2 ee e2 ee!<(! e2 de!<)! |[M:4/4]!>(! (f3 e)!<(! (d2 e2)!>)!!<)! |!>(! f4 e2 ee!>)! | %79
 e3 e eedc | d2 cd!<(! eede!<)! |!>(! f2 e2 d3 c!>)! | d2 d2!<(! d2 de!<)! |!f! (f4 e2 de) | %84
 (f4 e2 fe) | d4 ^c4 | !fermata!d4!f! d2 d2 |: e2 d2 f2 f2 | e2 de f3 e | f4 g2 f2 | e4 (f2 e2) | %91
 d4 d2 d2 :| e2 d2 f2 f2 | e2 de f3 e | f4 g2 f2 | e4 (f2 e2) | !fermata!d8 | d2 dd e3 e | %98
 ffff e3 e | (d2 ^c2) d3 d | d2 dd e3 e | f3 f e2 ee |[M:3/2] d2 ^c2 d3 e f3 e |[M:4/4] f4 g2 f2 | %104
 e4 (f2 e2) | d8 |!ff! c4 d4 | e4 d4 | (f2 e2) g4 | e4 (d2 e2) | (f2 e2) g4- | g4 e4 | f8 | g4 f4 | %114
 (e8 | f4) e4 |!>(! d8-!>)! |!mp! d8- |!pp! !fermata!d8 |] %119
V:2
!f!"^Сла – ва в выш–них    Бо   –  гу,              и      на    зем – ли   мир,  в че–ло  – ве  –  цех  бла –го –во  –  ле  –  ни – е.""^Sla – va  v vyish–nikh   Bo  –  gu,              i       na    zem – li      mir,    v che–lo – ve – tsekh  bla –go–vo  –  lye  –  ni – ye." EG G2 G2 E2 | %1
 G4 (F2 G2) | A2 G2 G2 G2 | G4 G2 G2 | G3 G!>(! G2 GE!>)! | G4!<(! G2 G2!<)! | %6
"^Хва-лим Тя, бла–го–сло–вим  Тя,       кла–ни–ем–ти–ся, сла–во–сло–вим Тя, бла–го–дар–им Тя  ве – ли – ки –я    ра –ди""^Khva–lim Tya, bla–go–slo – vim Tya,      kla–ni–yem–ti–sya,  sla– vo– slo–vim Tya, bla–go–dar–im Tya vye– li  –  ki – ya  ra  –di"!>(! A3 G GGFE!>)! | %7
!mp! F4 (F2 G2) | A2 GG GGFE | F3 F FEEE | F4!<(! F2 G2!<)! |!>(! A3 G G2 GG!>)! | %12
"^сла–вы  Тво–е– я.                   Гос     –    по–ди, Ца–рю  не  – бес–ный, Бо – же     От  –   це   Все–дер–жи–те–лю.  Гос  – по–ди,""^sla –vui Tvo-ye-ya.                  Gos    –    po–di,  Tsa–ryu nye–bes – nui,  Bo –zhe    Ot   –  tse   Vsye–der–zhi–te–lyu. Gos – po –di," GGFE!<(! (F2 G2)!<)! | %13
!>(! A3 G GGFE!>)! | F2 G2 !>!A3 G |!>(! A4 G2 GG!>)! | FE F2 G2 GG | %17
"^Сы –не          е – ди –но – род   –  ный,    I  – и  –   су    –  се  Хри–сте,  и  Свя–тый   Ду   – ше.  Гос  – по–ди    Бо  – же,  агн–че""^Sui–nye       ye –di  – no – rod   –  nui,      I  –  i        su   – sye Khri–ste,   i   Svya–tui    Du  – she.  God – po–di    Bo –zhe.  agn–che" G2 G2 z GFE | %18
!<(! F4 FGAG!<)! |!>(! A2 GG GGGG!>)! | G3 G G2 GG | F3 E!<(! F2 G2!<)! | %22
[M:3/2]"^Бо-жий, Сы-не  О– течь, в зем-лий грех мира, по–ми–луй нас,   в зем  –  ляй  гре–хи  ми–ра  при–и–ми  мо–лит–ву""^Bo–zhii, Sui–ne O–tech', v zyem–lii grekh mira,  po– mi– lui  nas,   v zyem–  lyai  gre–khi  mi–ra    pri – i – mi   mo–lit – vu" A3 G!>(! G2 FE (F2 G2)!>)! | %23
[M:4/4] !>!A2 GG G2 GG | !>!A2 G2!<(! (F2 G2)!<)! |!>(! A4- AGGG!>)! | GGGG GGFE | %27
"^на    –   шу.  Се  – дий     о –  дес – ну – ю  От – ца,  по  –   ми  –луй  нас. ____     Я         –        ко  Ты  е   –  си     е – динь свить,""^na    –  shu. Sye – dii       o  – dyes–nu–yu  Ot – tsa,   po  –   mi  – lui    nas. ____     Ya       –        ko  Tui ye – si      ye – din'   svet',"!<(! (F2 A2) A2 c2!<)! | %28
!ff! c4 c2 c2 | c2 cc A2 A2 |!>(! A3 A!<(! (A2 c2)!>)!!<)! |!ff! c4- cccc | %32
!>(! c2 AA!<(! (A2 c2)!>)!!<)! | %33
!ff!"^Ты    е – си  е–динь Гос–подь, И–и – сус  Хрис–тос, в сла-ву Бо–га   От –  ца.       А      –     минь.      На  всех день  бла–го–сло–""^Tui  ye –si  ye–din'   Gos–pod',  I – i  – sus Khris–tos,  v sla–vu Bo–ga   Ot – tsa.        A      –     min'.        Na vsyekh den'  bla–go–slo–" c3 c ccAA | %34
 A2 AA G2 _B2 | c2 GG F2 AA | (_B2 A2) G4 | A4 z2 !fermata!z!p! A | G2 G2 z GGG | %39
"^–vlyu Tya  i    vos – khva–lyu    i  –  mya Tvo–ye       vo    vye–ki   i   v vek   vye–ka.      Spo–do–bi,   Gospodi,  v  den'  sei  bez grye–""^–влю Тя    и   вос – хва – лю    и  –  мя  Тво – е        во    ве – ки и  в век    ве–ка.       Спо–до–би,  Господи, в день сей без гре–" G2 G2 z GGG | %40
!<(! G4 F2!>(! FF!<)!!>)! |!<(! G3 G F!>(!FFF!<)!!>)! | G2 G2 !fermata!z2!p! A2 | G3 D E2 EE | %44
 F2 F4 FF | %45
"^–ха            со  –  хра– ни   –  ти – ся      нам.            Бла – го –сло– вен       е  –  си,   Гос  – по – ди       Бо  –  же   о – тец    на– ших,""^–kha         so  – khra– ni    –  ti   – sya   nam.            Bla  –  go – slo –ven      ye –  si,    God – po – di        Bo – zhe   o – tets   na–shikh,"!<(! G2 _B,B, C2 FF!<)! | %46
 E4!pp! F2 FF |!<(! F2 EE A2 AA!<)! |!<(! A2 GG c2 cc!<)! | %49
"^и _____ хваль–но  и  про–сла –вле–но     и   –   мя  Тво –  е         во        ве – ки.  А–минь.    Бу  – ди,   Гос-по-ди, ми-лость Тво–""^i _____ khval'–no   i   pro – sla –vlye–no      i    –  mya Tvo– ye        vo       vye –ki.   A–min'.      Bu  –  di,   Gos-po-di,  mi –lost'    Tvo–" (c2 _B2)!f! AAAA | %50
 A2 AA _B2 BB | A2 GF!>(! _B2 BB!>)! | A4!p! G3 D | E2 EE F2 FF | %54
"^–я          на   нас,                        я      –      ко    –     же          у  –  по – ва    –   хом  на  Тя.      Бла–го–сло  –  вен      е   –  си,   Гос   –   по –""^–ya        na   nas,                       ya    –      ko    –    zhe         u  –  po – va   –  khom na Tya.    Bla– go–slo   –  ven      ye –   si,   Gos  –   po –"!<(! C3 C F4!<)! | %55
 F2 ED CDEC | c2 BB c!ff!ccc |: A2 A_B!>(! G3 G!>)! | %58
"^–ди, на–у – чи    мя                о–прав–да  –  ни – ем    Тво–им.Бла-го-сло  –  вен    е   –  си,   Гос   –  по  – ди,   на–у – чи     мя,""^–di,   na–u– chi  mya               o–prav–da  –   ni – yem  Tvo–im.  Bla-go-slo    – vyen  ye –  si,    Gos  –   po  – di,    na–u–chi    mya," F2!p! FF F2 F2 | %59
 z2 FF F3 F | E2 E2 F!ff!ccc :| A2 A_B!>(! G3 G!>)! |!p!!<(! F2 FF F2 G2!<)! | %63
 z2"^на –у – чи   мя                    оп–рав–да –ни–ем  Тво   –    им. _______         Гос  – по – ди,  при –бе – жи–ще был  е  –  си  нам""^na –u –chi mya                   op–rav –da–ni–yem Tvo   –     im. _______          Gos – po– di,  pri–bye–zhi–shche buil  ye – si  nam"!<(! GG G2 A2!<)! | %64
[M:3/2] z2!f! AA A3 A B2 B2 |[M:4/4] c6- c !fermata!z |!f! A3 G G3 F | G2 GG GGGG | %68
"^в род  и    род. Аз рех:  Гос – по–ди,    по–ми–луй мя,            ис–це–ли      ду–шу   мо – ю,   я  –  ко   со – гре – ших Те – бе. ___""^v rod   i    rod. Az ryekh: Gos–po– di,     po– mi– lui mya,           is– tse– li       du–shu  mo–yu, ya –  ko   so – gre –shikh Tye-bye.__"!>(! A3 G!<(! F2 FG!>)!!<)! | %69
!>(! A3 G G3 F!>)! | GG G2 z GGG | GGGG!<(! GGFG!<)! |!>(! A3 G!<(! (F2 G2)!>)!!<)! | %73
"^Гос–по–ди,  к Те  – бе   при-бе-гох, на–у  –   чи   мя       тво–ри–ти        во –лю Тво–ю, я –  ко  Ты  е  –  си           Бог         мой,""^Gos–po–di,  k Tye–bye pri-bye-rokh, na–u –chi   mya     tvo– ri – ti           vo–lyu  Tvo–yu, ya–ko Tui ye – si            Bog         moi,"!>(! A3 G G2 z G!>)! | %74
 G2 FE!<(! F2 FG!<)! |!>(! A2 G2 z GGG!>)! |[M:3/2] G2 GG G2 GG!<(! G2 FG!<)! | %77
[M:4/4]!>(! (A3 G)!<(! (F2 G2)!>)!!<)! | %78
"^ya – ko  u   Tye – bye     is-toch-nik zhi–vo –  ta,     vo      svye–te Tvo-yem uz-im svyet Pro–ba–vi  mi–lost'   Tvo – yu _________""^я  –  ко  у    Те  –   бе      ис-точ-ник жи-во –  та,     во       све–те Тво–ем  уз-им свет  Про-ба-ви ми-лость Тво – ю _________"!>(! A4 G2 GG!>)! | %79
 G3 G GGFE | F2 EF!<(! GGFG!<)! |!>(! A2 A2 F3 E!>)! | F2 F2!<(! F2 FG!<)! |!f! (A4 G4) | %84
"^ве        –         –         –         ду          –          щим              Тя.    Свя–тый      Бо–же, свя–тый  креп-кий, свя-тый без-смерт-ный, по–""^vye      –         –         –        du          –        shchim          Tya.   Svya–tui      Bo–zhe, svya–tui kryep–kii, svya–tui bez–smyert-nui,  po–" (F2 GA _B2 AG) | %85
 F4 E4 | !fermata!D4!f! F2 A2 |: A2 A2 A2 A2 | A2 AA A3 _B | A4 G2 A2 | %90
"^– mi   –    lui             nas.    Svya–tui       Bo–zhe, svya-tui  krep– kii, svya– tui    bez–smyert–nui,  po – mi   –    lui              nas.""^–ми   –   луй            нас.    Свя–тый      Бо–же, свя–тый  креп-кий, свя–тый  без–смерт-ный, по – ми   –   луй            нас." _B4 (A2 G2) | %91
 F4 F2 A2 :| A2 A2 A2 A2 | A2 AA A3 _B | A4 G2 A2 | _B4 (A2 G2) | !fermata!F8 | %97
"^Сла–ва   От–цу      и       Сы– ну   и    Свя–то    –   му      Ду       –       ху,      и        ны –  не  и    при – сно     и         во    ве  –  ки  ве –""^Sla –va    Ot–tsu      i         Sui–nu   i    Svya–to    –   mu     Du       –     khu,     i         nui–nye  i      pri  – sno      i          vo    vye – ki vye–" F2 FF G3 G | %98
 AAAA G3 G | (F2 E2) F3 F | F2 FF G3 G | A3 A G2 GG | %102
[M:3/2]"^–ков.  А–минь. Cвя-тый  без–смерт-ный, по–ми –  луй         нас.         Свя–тый    Бо – же,      свя  –   тый          креп – кий,""^–kov.   A–min'.   Svya–tui   bez–smert–nui,   po–mi  –   lui           nas.        Svya–tui      Bo –zhe,    svya –   tui            kryep – kii," F2 E2 F3 A A3 _B | %103
[M:4/4] A4 G2 A2 | _B4 (A2 G2) | F8 |!ff! G4 F4 | G4 F4 | A4 (_B2 A2) | (G2 A2) (_B2 A2) | %110
"^svya– tui ______    bez – smyert        –         nui,       no    –     mi        –         –         –         –    lui      nas. _________________________""^свя –  тый _____   без –  смерт        –         ный,     по    –     ми       –         –         –         –    луй    нас. _________________________" A4 _B4- | %111
 B4 G4 | (A4 _B2 A2) | G4 A4 | (_B2 G2 A2 B2 | A6) G2 |!>(! (F8!>)! |!mp! G4 _B2 G2 | %118
!pp! !fermata!F8) |] %119
V:3
!f! AB c2 cB A2 | B4 (A2 c2) | c2 c2 c2 c2 | B4 c2 c2 | c3 c!>(! c2 BA!>)! | B4!<(! B2 c2!<)! | %6
!>(! c3 c ccAA!>)! |!mp! A4 (A2 c2) | c2 cc ccAA | A3 A AAAA | A4!<(! A2 c2!<)! | %11
!>(! c3 c c2 cc!>)! | ccAA!<(! (A2 c2)!<)! |!>(! c3 c ccAA!>)! | A2 c2 !>!c3 c |!>(! c4 c2 cc!>)! | %16
 AA A2 c2 cc | c2 c2 z cAA |!<(! A4 Accc!<)! |!>(! c2 cc cccc!>)! | c3 c c2 cc | %21
 A3 A!<(! A2 c2!<)! |[M:3/2] c3 c!>(! c2 AA (A2 c2)!>)! |[M:4/4] !>!c2 cc c2 cc | %24
 !>!c2 c2!<(! (A2 c2)!<)! |!>(! c4- cccc!>)! | cccc ccAA |!<(! (A2 c2) d2 e2!<)! |!ff! f4 e2 e2 | %29
 e2 ee d2 c2 |!>(! d3 d!<(! d2 e2!>)!!<)! |!ff! f4- feee |!>(! e2 dc!<(! (d2 e2)!>)!!<)! | %33
!ff! f3 e eedc | d2 dd d2 g2 | g2 cc c2 ff | f4 (e2 d2) | e4 z2 !fermata!z!p! e | e2 e2 z eee | %39
 e2 e2 z eee |!<(! e4 d2!>(! dd!<)!!>)! |!<(! e3 e d!>(!ddd!<)!!>)! | e2 e2 !fermata!z2!p! e2 | %43
 d3 d c2 cc | _B2 B4 BB |!<(! _Bcde f2 dd!<)! | e4!pp! d2 dd |!<(! c2 cc c2 cc!<)! | %48
!<(! d2 dd f2 ff!<)! | f4!f! !>!e!>!e!>!a!>!g | fedd efge | f2 ed!>(! e2 ee!>)! | e4!p! d3 d | %53
 c2 cc _B2 BB |!<(! g3 g c4!<)! | BA ^G2 ABce | gagf e!ff!efg |: f2 ff!>(! c3 c!>)! | %58
 c2!p! cc c2 d2 | z2 cc _B3 B | c2 c2 c!ff!efg :| f2 ff!>(! c3 c!>)! |!p!!<(! c2 cc c2 d2!<)! | %63
 z2!<(! dd d2 e2!<)! |[M:3/2] z2!f! ee f3 f f2 f2 |[M:4/4] g6- g !fermata!z |!f! c3 c c3 A | %67
 c2 cc cccc |!>(! c3 c!<(! A2 Ac!>)!!<)! |!>(! c3 c c3 A!>)! | cc c2 z ccc | cccc!<(! ccAc!<)! | %72
!>(! c3 c!<(! (A2 c2)!>)!!<)! |!>(! c3 c c2 z c!>)! | c2 AA!<(! A2 Ac!<)! |!>(! c2 c2 z ccc!>)! | %76
[M:3/2] c2 cc c2 cc!<(! c2 Ac!<)! |[M:4/4]!>(! c4!<(! (A2 c2)!>)!!<)! |!>(! c4 c2 cc!>)! | %79
 c3 c ccAA | A2 A2!<(! ccAc!<)! |!>(! c2 c2 A3 A!>)! | A2 A2!<(! A2 Ac!<)! |!f! c8 | (c4 _B4) | %85
 AB^cd (a2 g2) | !fermata!f4!f! A2 d2 |: ^c2 d2 d2 d2 | ^c2 dc d3 _B | c4 d2 d2 | d4 ^c4 | %91
 d4 A2 d2 :| ^c2 d2 d2 d2 | ^c2 dc d3 _B | c4 d2 d2 | d4 ^c4 | !fermata!d8 | A2 AA c3 c | %98
 cccc _B3 B | A4 A3 A | A2 AA c3 c | c3 c _B2 BB |[M:3/2] A2 A2 A3 ^c d3 _B |[M:4/4] c4 d2 d2 | %104
 d4 ^c4 | d8 |!ff! G4 A4 | c4 A4 | (d2 c2) (d2 c2) | (_B2 A2) (G2 B2) | (d2 c2) d4- | d4 c4 | %112
 (c4 d2 c2) | (_B2 c2) d4 | (d2 _B2 c2 d2 | d4) ^c4 |!>(! (d4 A4!>)! |!mp! _B4 G2 B2 | %118
!pp! !fermata!A8) |] %119
V:4
!f! A,G, C,2 C,G, A,2 | G,4 (D,2 C,2) | F,2 C,2 C,D, E,2 | G,4 C,2 C,2 | C,3 C,!>(! C,2 G,A,!>)! | %5
 G,4!<(! G,2 C,2!<)! |!>(! F,3 C, C,C,D,A,,!>)! |!mp! D,4 (D,2 C,2) | F,2 C,C, C,C,D,A,, | %9
 D,3 D, D,A,A,A, | D,4!<(! D,2 C,2!<)! | F,3 C, C,2 C,C, | %12
"^Great doxology\nAll-Night Vigil\n, Opus 50, No. 16\nP. I. Tchaikovsky, 1883" C,C,D,A,,!<(! (D,2 C,2)!<)! | %13
!>(! F,3 C, C,C,D,A,,!>)! | D,2 C,2 !>!F,3 C, |!>(! F,4 C,2 C,C,!>)! | D,A,, D,2 C,2 C,C, | %17
 C,2 C,2 z C,D,A,, |!<(! D,4 D,C,F,C,!<)! |!>(! F,2 C,C, C,C,C,C,!>)! | C,3 C, C,2 C,C, | %21
 D,3 A,,!<(! D,2 C,2!<)! |[M:3/2] F,3 C,!>(! C,2 D,A,, (D,2 C,2)!>)! | %23
[M:4/4] !>!F,2 C,C, C,2 C,C, | !>!F,2 C,2!<(! (D,2 C,2)!<)! |!>(! F,4- F,C,C,C,!>)! | %26
 C,C,C,C, C,C,D,A,, |!<(! D,2 A,2 D2 C2!<)! |!ff! F,4 C2 C2 | C2 CC D2 A,2 | %30
!>(! D3 D!<(! (D2 C2)!>)!!<)! |!ff! F,4- F,CCC |!>(! C2 DA,!<(! (D2 C2)!>)!!<)! |!ff! F,3 C CCDA, | %34
 D2 CC _B,2 G,2 | C2 _B,B, A,2 F,F, | _B,4 B,4 | A,4 z2 !fermata!z!p! A, | A,2 A,2 z A,A,A, | %39
 A,2 A,2 z A,A,A, |!<(! A,4 _B,2!>(! _B,,B,,!<)!!>)! |!<(! A,,3 A, _B,!>(!B,_B,,B,,!<)!!>)! | %42
 A,,2 A,,2 !fermata!z2!p! A,,2 | _B,,3 B,, C,2 C,C, | D,2 D,4 D,D, |!<(! E,2 F,G, A,2 _B,B,!<)! | %46
 C4!pp! D2 DD |!<(! C2 CC A,2 A,A,!<)! |!<(! G,2 G,G, F,2 F,F,!<)! | D,4!f! ^C,C,B,,C, | %50
 D,E,F,A, D2 DD | DC B,A,!>(! G,2 G,G,!>)! | A,4!p! _B,3 _B,, | C,2 C,C, D,2 D,D, | %54
!<(! E,3 E, F,E,D,C,!<)! | D,2 E,2 A,,2 A,A, | G,2 G,G, C,!ff!CCC |: D2 C_B,!>(! E,3 E,!>)! | %58
 F,2!p! F,F, A,,2 _B,,2 | z2 C,C, D,3 D, | C,2 C,2 F,!ff!CCC :| D2 C_B,!>(! E,3 E,!>)! | %62
!p!!<(! F,2 F,F, A,2 G,2!<)! | z2!<(! G,G, _B,2 A,2!<)! |[M:3/2] z2!f! A,A, D3 D D2 D2 | %65
[M:4/4] C6- C !fermata!z |!f! F,3 C, C,3 D, | C,2 C,C, C,C,C,C, |!>(! D,3 C,!<(! D,2 D,C,!>)!!<)! | %69
!>(! F,3 C, C,3 D,!>)! | C,C, C,2 z C,C,C, | C,C,C,C,!<(! C,C,D,C,!<)! | %72
!>(! F,3 C,!<(! (D,2 C,2)!>)!!<)! |!>(! F,3 C, C,2 z C,!>)! | C,2 D,A,,!<(! D,2 D,C,!<)! | %75
!>(! F,2 C,2 z C,C,C,!>)! |[M:3/2] C,2 C,C, C,2 C,C,!<(! C,2 D,C,!<)! | %77
[M:4/4]!>(! (F,3 C,)!<(! (D,2 C,2)!>)!!<)! |!>(! F,4 C,2 C,C,!>)! | C,3 C, C,C,D,A,, | %80
 D,2 A,,D,!<(! C,C,D,A,,!<)! |!>(! F,2 C,2 D,3 A,,!>)! | D,2 D,2!<(! D,2 D,C,!<)! | %83
!f! (F,4 C,2 _B,,2) | (A,,2 G,,F,, G,,4) | A,,4 A,4 | !fermata!D,4!f! D,2 F,2 |: A,2 F,2 D,2 F,2 | %88
 A,2 F,A, D,3 G, | F,4 B,2 A,2 | G,4 A,4 | D,4 D,2 F,2 :| A,2 F,2 D,2 F,2 | A,2 F,A, D,3 G, | %94
 F,4 _B,2 D2 | G,4 A,4 | !fermata!D,8 | D,2 D,D, C,3 C, | F,F,F,F, G,3 G, | A,4 D,3 D, | %100
 D,2 D,D, C,3 C, | F,3 F, G,2 G,G, |[M:3/2] A,2 A,2 D,3 A, D,3 G, |[M:4/4] F,4 _B,2 D2 | G,4 A,4 | %105
 D,8 |!ff! E,4 D,4 | C,4 D,4 | (D,2 A,2) G,4 | G,,4 G,4 | (D,2 A,2) G,4- | G,4 C4 | (F,2 E,2 D,4) | %113
 D4 (D,2 F,2) | (G,8 | F,2 G,2) A,4 |!>(! D,8-!>)! |!mp! D,8- |!pp! !fermata!D,8 |] %119

